X:2
T:version of the Helston Furry Dance
C:from Edward Winder's ms2
N:entitled " A grand dance in June to be played before the dancers start"
M:2/4
L:1/8
K:G
B2d2|d2ef|g2d2d|2ef|g2d2|d2c2|B4|G4:|
|:c2e2|e2dc|B2d2|d2cB|A2G2|ABcA|B4|G4:|
%%vskip 1cm
